X: 300
T:Come Up The Back Stairs
% Nottingham Music Database
S:Trad, arr Phil Rowe
M:6/8
K:G
D|"G"D2B B2A|AGF G2d|"D"d2F FEF|"G"A2G GFE|
D2B B2A|"G"AGF G2d|"D"d2F FEF|"G"G3 -G2::
g|"G"gfg bge|edB d3|"G"gfg "Em"bge|"G"edB "D7"d3|
"G"g2g gab|"C"e2e efg|"D7"d2d def|"G"agf g2:|


